X:2040
T:Polsk
T:(Totakt-pols, nr. FVL-41)
S:efter Frederik Vilhelm Lind
O:Gullestrup, Herning, Ringkøbing amt, Danmark
R:Totakt-pols
Z:Åke Persson 2011-06-25
M:2/4
L:1/8
Q:1/4=100
K:D
|: A/B/A/G/ FA | Ad fa | ag e/f/e/c/ | df A2 | A/B/A/G/ FA | Ad fa | ag e/g/e/c/ |1 d2 z2 :|2 d2 zf |]
|: g(f/g/) .bg | f(e/f/) .af | f(e/f/) .ge | df a2 | A/B/A/G/ FA | Ad fa | ag e/f/e/c/ |1 d2 zf :|2 d2 z2 |]
(:musicend:)

(:music:)
